X: 4180
T: Blue Ribbon, The
R: polka
M: 2/4
K: Dmajor
L:1/16
A2FA defg|a2a2 fdfa|g2g2 eceg|f2f2 d2dB|
A2FA defg|a2a2 fdfa|g4 f2e2|d2f2 d4:|
b2g2 d2cd|e2A2 ABcA|d2c2 A3e|f2d2 defg|
b2g2 d2cd|e2A2 ABcA|d2c2 A2F2|G4 G4:|

